Papirus/24x24/mimetypes/application-x-sega-cd-rom.svg

<svg width="24" height="24" version="1.1" xmlns="http://www.w3.org/2000/svg">
 <path d="m5 2.5c-0.554 0-1 0.446-1 1v18c0 0.554 0.446 1 1 1h14c0.554 0 1-0.446 1-1v-13l-6-6z" style="opacity:.2"/>
 <path d="m5 2c-0.554 0-1 0.446-1 1v18c0 0.554 0.446 1 1 1h14c0.554 0 1-0.446 1-1v-13l-5-1-1-5z" style="fill:#4f4f4f;stop-color:#000000"/>
 <path d="m20 8.5-6-6v5c0 0.554 0.446 1 1 1z" style="opacity:.2"/>
 <path d="m20 8-6-6v5c0 0.554 0.446 1 1 1z" style="fill:#696969;stop-color:#000000"/>
 <path d="m5 2c-0.554 0-1 0.446-1 1v0.5c0-0.554 0.446-1 1-1h9v-0.5h-9z" style="fill:#ffffff;opacity:.2"/>
 <path d="m10.59914 12.976872c-4.0568987 1.087044-5.723001 2.982864-5.3606257 4.335156 0.362375 1.352293 2.7531174 2.161085 6.8100157 1.074043 0.338075-0.09059 0.338075-0.09059-0.09059-0.338074-2.7951818 0.386619-4.4192427-0.265258-4.6910043-1.27948-0.2717606-1.014225 0.8087784-2.390798 3.4185443-3.469415 0.0043 0.01607 0.251734-0.412813-0.08634-0.322227zm1.3523-0.362348c-0.338075 0.09059 0.09065 0.338303 0.08634 0.322228 2.799434-0.370773 4.423522 0.281096 4.695281 1.295325 0.271761 1.014226-0.808806 2.390805-2.783337 3.172532l-1.297862-3.528368c-0.428635-0.247495-0.338075 0.09059-0.338075 0.09059l0.658381 3.809413c0.06865 0.256209 0.08589 0.317569 0.237079 0.29316 0.02337-0.0038 0.04932-9e-3 0.07982-0.01642 2.64e-4 -6.6e-5 4.04e-4 -1.15e-4 6.76e-4 -1.82e-4 0.03238-8e-3 0.06909-0.01778 0.111093-0.02905 4.056899-1.087043 5.722983-2.98286 5.360644-4.335162-0.362338-1.352301-2.753136-2.161079-6.810034-1.074037z" style="opacity:.2;stop-color:#000000"/>
 <path d="m10.59914 12.47658c-4.0568987 1.087044-5.723001 2.982864-5.3606257 4.335156 0.362375 1.352293 2.7531174 2.161085 6.8100157 1.074043 0.338075-0.09059 0.338075-0.09059-0.09059-0.338074-2.7951818 0.386619-4.4192427-0.265258-4.6910043-1.27948-0.2717606-1.014225 0.8087784-2.390798 3.4185443-3.469415 0.0043 0.01607 0.251734-0.412813-0.08634-0.322227zm1.3523-0.362348c-0.338075 0.09059 0.09065 0.338303 0.08634 0.322228 2.799434-0.370773 4.423522 0.281096 4.695281 1.295325 0.271761 1.014226-0.808806 2.390805-2.783337 3.172532l-1.297862-3.528368c-0.428635-0.247495-0.338075 0.09059-0.338075 0.09059l0.658381 3.809413c0.06865 0.256209 0.08589 0.317569 0.237079 0.29316 0.02337-0.0038 0.04932-9e-3 0.07982-0.01642 2.64e-4 -6.6e-5 4.04e-4 -1.15e-4 6.76e-4 -1.82e-4 0.03238-8e-3 0.06909-0.01778 0.111093-0.02905 4.056899-1.087043 5.722983-2.98286 5.360644-4.335162-0.362338-1.352301-2.753136-2.161079-6.810034-1.074037z" style="fill:#fecd38;stop-color:#000000"/>
</svg>

<svg xmlns="http://www.w3.org/2000/svg" width="24" height="24" version="1.1">
 <path style="opacity:0.2" d="M 5,2.5 C 4.446,2.5 4,2.946 4,3.5 V 21.5 C 4,22.054 4.446,22.5 5,22.5 H 19 C 19.554,22.5 20,22.054 20,21.5 V 8.5 L 14,2.5 Z"/>
 <path style="fill:#4f4f4f" d="M 5,2 C 4.446,2 4,2.446 4,3 V 21 C 4,21.554 4.446,22 5,22 H 19 C 19.554,22 20,21.554 20,21 V 8 L 15,7 14,2 Z"/>
 <path style="opacity:0.2" d="M 20,8.5 14,2.5 V 7.5 C 14,8.054 14.446,8.5 15,8.5 Z"/>
 <path style="fill:#696969" d="M 20,8 14,2 V 7 C 14,7.554 14.446,8 15,8 Z"/>
 <path style="opacity:0.1;fill:#ffffff" d="M 5,2 C 4.446,2 4,2.446 4,3 V 3.5 C 4,2.946 4.446,2.5 5,2.5 H 14 V 2 Z"/>
 <path style="opacity:0.1" d="M 10.599,12.977 C 6.5422,14.064 4.8761,15.96 5.2385,17.312 5.6009,18.664 7.9916,19.473 12.049,18.386 12.387,18.295 12.387,18.295 11.958,18.048 9.1628,18.435 7.5387,17.783 7.2669,16.769 6.9952,15.754 8.0757,14.378 10.685,13.299 10.69,13.315 10.937,12.886 10.599,12.977 Z M 11.951,12.615 C 11.613,12.705 12.042,12.953 12.038,12.937 14.837,12.566 16.461,13.218 16.733,14.232 17.005,15.246 15.924,16.623 13.95,17.405 L 12.652,13.876 C 12.223,13.629 12.314,13.967 12.314,13.967 L 12.972,17.776 C 13.041,18.032 13.058,18.094 13.209,18.069 13.233,18.066 13.259,18.06 13.289,18.053 13.289,18.053 13.289,18.053 13.29,18.053 13.322,18.045 13.359,18.035 13.401,18.024 17.458,16.937 19.124,15.041 18.761,13.689 18.399,12.336 16.008,11.528 11.951,12.615 Z"/>
 <path style="fill:#fecd38" d="M 10.599,12.477 C 6.5422,13.564 4.8761,15.459 5.2385,16.812 5.6009,18.164 7.9916,18.973 12.049,17.886 12.387,17.795 12.387,17.795 11.958,17.548 9.1628,17.934 7.5387,17.282 7.2669,16.268 6.9952,15.254 8.0757,13.877 10.685,12.799 10.69,12.815 10.937,12.386 10.599,12.477 Z M 11.951,12.114 C 11.613,12.205 12.042,12.453 12.038,12.436 14.837,12.066 16.461,12.718 16.733,13.732 17.005,14.746 15.924,16.123 13.95,16.904 L 12.652,13.376 C 12.223,13.128 12.314,13.467 12.314,13.467 L 12.972,17.276 C 13.041,17.532 13.058,17.594 13.209,17.569 13.233,17.565 13.259,17.56 13.289,17.553 13.289,17.553 13.289,17.553 13.29,17.553 13.322,17.545 13.359,17.535 13.401,17.523 17.458,16.436 19.124,14.541 18.761,13.188 18.399,11.836 16.008,11.027 11.951,12.114 Z"/>
</svg>
